packages/core/src/svgs/networks/mono/neon-evm.svg

<svg width="24" height="24" viewBox="0 0 24 24" fill="none" xmlns="http://www.w3.org/2000/svg">
<path fill-rule="evenodd" clip-rule="evenodd" d="M12 22C17.5226 22 22 17.5257 22 12.007C22.0141 6.47423 17.5226 2 12 2C6.47738 2 2 6.47423 2 11.993C2 17.5116 6.47738 22 12 22ZM8.12993 7.74452L11.8729 11.4847V7.94212C11.8729 7.91389 11.8729 7.87155 11.887 7.84332C11.9011 7.81509 11.9152 7.78687 11.9435 7.75864C11.9717 7.7304 12 7.71629 12.0282 7.70218C12.0565 7.68807 12.0989 7.68807 12.1271 7.68807H16.3361H16.3502C16.3502 7.68807 16.3502 7.68807 16.3644 7.68807C16.3926 7.68807 16.435 7.70218 16.4632 7.70218C16.4915 7.71629 16.5197 7.7304 16.548 7.75864C16.5762 7.78687 16.5904 7.81509 16.6045 7.84332C16.6186 7.87155 16.6186 7.91389 16.6186 7.94212V12.12C16.6186 12.1341 16.6186 12.1341 16.6186 12.1482V16.3542C16.6186 16.3966 16.6186 16.4249 16.6045 16.453C16.5904 16.4812 16.5762 16.5095 16.548 16.5377C16.5197 16.566 16.4915 16.5801 16.4632 16.5942C16.435 16.6084 16.3926 16.6084 16.3644 16.6084C16.322 16.6084 16.2937 16.6084 16.2514 16.5942C16.2231 16.5801 16.1807 16.566 16.1666 16.5377L12.4237 12.7975V16.3542C12.4237 16.3825 12.4237 16.4249 12.4096 16.453C12.3955 16.4812 12.3814 16.5095 12.3531 16.5377C12.3249 16.566 12.2966 16.5801 12.2684 16.5942C12.2401 16.6084 12.1977 16.6084 12.1695 16.6084H7.9463H7.93218C7.90394 16.6084 7.86157 16.5942 7.83332 16.5942C7.80507 16.5801 7.77682 16.566 7.74857 16.5377C7.72032 16.5095 7.70619 16.4812 7.69207 16.453C7.67795 16.4249 7.67795 16.3825 7.67795 16.3542V12.1482C7.67795 12.12 7.67795 12.1059 7.69207 12.0776V7.94212C7.69207 7.88567 7.70619 7.84332 7.73444 7.78687C7.76269 7.74452 7.80506 7.70218 7.86156 7.68807C7.90394 7.67395 7.96043 7.65984 8.01693 7.67395C8.04518 7.68807 8.10168 7.71629 8.12993 7.74452Z" fill="white"/>
</svg>

<svg xmlns="http://www.w3.org/2000/svg" width="24" height="24" fill="none" viewBox="0 0 24 24">
    <path fill="#fff" fill-rule="evenodd" d="M12 22c5.523 0 10-4.474 10-9.993C22.014 6.474 17.523 2 12 2S2 6.474 2 11.993 6.477 22 12 22M8.13 7.745l3.743 3.74V7.942c0-.028 0-.07.014-.099a.3.3 0 0 1 .056-.084c.029-.029.057-.043.085-.057s.07-.014.1-.014h4.236c.029 0 .071.014.1.014a.3.3 0 0 1 .084.057.3.3 0 0 1 .057.084.24.24 0 0 1 .014.1v8.411c0 .043 0 .07-.014.099a.3.3 0 0 1-.057.085.3.3 0 0 1-.085.056c-.028.014-.07.014-.099.014-.042 0-.07 0-.113-.014-.028-.014-.07-.028-.084-.056l-3.743-3.74v3.556c0 .029 0 .07-.014.099s-.029.056-.057.085a.3.3 0 0 1-.085.056c-.028.014-.07.014-.099.014H7.932c-.028 0-.07-.014-.099-.014a.3.3 0 0 1-.084-.056c-.029-.029-.043-.057-.057-.085s-.014-.07-.014-.099v-4.206c0-.028 0-.042.014-.07V7.942c0-.056.014-.099.042-.155a.23.23 0 0 1 .128-.099.3.3 0 0 1 .155-.014c.028.014.085.042.113.07" clip-rule="evenodd"/>
</svg>
